www/assets/icons/face_3.svg

<svg width="24" height="24" viewBox="0 0 24 24" xmlns="http://www.w3.org/2000/svg" fill='currentColor'><path d="M9.00427 13.25C9.69463 13.25 10.2543 12.6904 10.2543 12C10.2543 11.3096 9.69463 10.75 9.00427 10.75C8.31392 10.75 7.75427 11.3096 7.75427 12C7.75427 12.6904 8.31392 13.25 9.00427 13.25Z"/><path d="M15.0043 13.25C15.6946 13.25 16.2543 12.6904 16.2543 12C16.2543 11.3096 15.6946 10.75 15.0043 10.75C14.3139 10.75 13.7543 11.3096 13.7543 12C13.7543 12.6904 14.3139 13.25 15.0043 13.25Z"/><path d="M22.9143 10.96C22.3943 5.32 17.6643 1 12.0043 1C6.34427 1 1.61427 5.32 1.09427 10.96L0.194274 20.82C0.0942736 21.99 1.01427 23 2.19427 23H21.8143C22.9943 23 23.9143 21.99 23.8043 20.82L22.9143 10.96ZM4.54427 8.13C5.41427 8.68 6.43427 9 7.50427 9C9.36427 9 11.0043 8.07 12.0043 6.65C13.0043 8.07 14.6443 9 16.5043 9C17.5743 9 18.5943 8.68 19.4643 8.13C19.8043 9.02 20.0043 9.99 20.0043 11C20.0043 15.41 16.4143 19 12.0043 19C7.59427 19 4.00427 15.41 4.00427 11C4.00427 9.99 4.20427 9.02 4.54427 8.13Z"/></svg>

<svg xmlns="http://www.w3.org/2000/svg" width="24" height="24" viewBox="0 0 24 24" fill='currentColor'><path d="M9.004 13.25a1.25 1.25 0 1 0 0-2.5 1.25 1.25 0 0 0 0 2.5m6 0a1.25 1.25 0 1 0 0-2.5 1.25 1.25 0 0 0 0 2.5"/><path d="M22.914 10.96C22.394 5.32 17.664 1 12.004 1s-10.39 4.32-10.91 9.96l-.9 9.86c-.1 1.17.82 2.18 2 2.18h19.62c1.18 0 2.1-1.01 1.99-2.18zM4.544 8.13c.87.55 1.89.87 2.96.87 1.86 0 3.5-.93 4.5-2.35 1 1.42 2.64 2.35 4.5 2.35 1.07 0 2.09-.32 2.96-.87.34.89.54 1.86.54 2.87 0 4.41-3.59 8-8 8s-8-3.59-8-8c0-1.01.2-1.98.54-2.87"/></svg>
